X:6
T: Ritter und Magd
N: Q0055E
O: Mitteleuropa, Deutschland (BRD) , Hessen, Oberhessen, Kr. Alsfeld,
N: Moeglicher Taktwechsel zum 2/4 angemerkt.
R: Ballade, Betrug, Schwangerschaft, Tod, Selbstmord, Herr und Magd
M: 3/4
L: 1/16
K: G
D2G2A2 | B6A2B2c2 | d6
B2c2d2 | e4d4c4 | B4z2
GAB2d2 | c6d2B2d2 | A4z2
GAB2d2 | B6d2A4 | G4z2

